X:3066
T:M\oens hopsa
C:anon.
O:Denmark
R:Hopsa
F:http://abc.musicaviva.com/tunes/denmark/moeens-hopsa/moeens-hopsa-1.abc
M:2/4
L:1/8
K:F
"F"c>c c>c|"F"a2f2|[1"Gm"g>f e>d|"C"c>B A>B:|[2"Gm"g>f "C7"e>g|"F"f2 z2||
|:"F"c>c c>c|"F"dcA2|[1"C7"cBG2|"F"dcA2:|[2"C7"cB GE|"F"F2z2|]
W:
W:
W:  From Musica Viva - http://www.musicaviva.com
W:  the Internet center for free sheet music downloads.
